img/payment/img3.svg

<svg width="49" height="31" viewBox="0 0 49 31" fill="none" xmlns="http://www.w3.org/2000/svg">
<g clip-path="url(#clip0_14_6601)">
<path d="M31.0258 26.5155H18.0338V3.17383H31.026L31.0258 26.5155Z" fill="#FF5F00"/>
<path d="M18.8575 14.8448C18.8575 10.1099 21.0751 5.89211 24.5284 3.17396C21.9144 1.11342 18.6814 -0.00490096 15.3526 1.61458e-05C7.15258 1.61458e-05 0.505508 6.64615 0.505508 14.8448C0.505508 23.0434 7.15258 29.6896 15.3526 29.6896C18.6815 29.6946 21.9146 28.5762 24.5286 26.5156C21.0756 23.798 18.8575 19.5799 18.8575 14.8448Z" fill="#EB001B"/>
<path d="M48.5534 14.8448C48.5534 23.0434 41.9063 29.6896 33.7063 29.6896C30.3771 29.6945 27.1436 28.5762 24.5291 26.5156C27.9833 23.7975 30.2009 19.5799 30.2009 14.8448C30.2009 10.1097 27.9833 5.89211 24.5291 3.17396C27.1435 1.11348 30.3769 -0.00481478 33.7061 1.55826e-05C41.9061 1.55826e-05 48.5532 6.64615 48.5532 14.8448" fill="#F79E1B"/>
<path d="M47.6007 17.6853V17.7814H47.6903C47.7072 17.7817 47.7237 17.7774 47.7384 17.7692C47.7442 17.765 47.7489 17.7595 47.7521 17.7531C47.7552 17.7467 47.7567 17.7396 47.7564 17.7324C47.7567 17.7254 47.7552 17.7184 47.752 17.7122C47.7489 17.7059 47.7442 17.7006 47.7384 17.6966C47.7239 17.6879 47.7072 17.6837 47.6903 17.6844H47.6007V17.6853ZM47.6913 17.6174C47.7297 17.615 47.7677 17.6261 47.7989 17.6486C47.8114 17.6588 47.8213 17.6719 47.8279 17.6866C47.8344 17.7014 47.8374 17.7175 47.8366 17.7336C47.8372 17.7475 47.8348 17.7613 47.8296 17.7742C47.8244 17.7871 47.8164 17.7987 47.8064 17.8083C47.7823 17.8292 47.7521 17.8418 47.7204 17.8441L47.8405 17.981H47.748L47.6375 17.845H47.6017V17.981H47.5244V17.6176H47.6925L47.6913 17.6174ZM47.6673 18.1063C47.7078 18.1067 47.748 18.0985 47.7852 18.0823C47.8211 18.0669 47.8537 18.0448 47.8813 18.0172C47.909 17.9897 47.9311 17.9571 47.9464 17.9212C47.9779 17.845 47.9779 17.7595 47.9464 17.6834C47.9309 17.6476 47.9088 17.6151 47.8813 17.5874C47.8537 17.5598 47.8211 17.5377 47.7852 17.5223C47.7478 17.507 47.7077 17.4993 47.6673 17.4997C47.6262 17.4993 47.5854 17.507 47.5472 17.5223C47.5105 17.5374 47.4772 17.5595 47.4489 17.5874C47.4064 17.6309 47.3777 17.686 47.3663 17.7458C47.3549 17.8056 47.3613 17.8674 47.3848 17.9236C47.3994 17.9596 47.4212 17.9923 47.4489 18.0196C47.4772 18.0474 47.5105 18.0695 47.5472 18.0847C47.5851 18.1009 47.626 18.1091 47.6673 18.1087M47.6673 17.4123C47.7729 17.4122 47.8742 17.4536 47.9495 17.5276C47.9858 17.5631 48.0147 17.6055 48.0346 17.6522C48.0551 17.7002 48.0657 17.7519 48.0657 17.8041C48.0657 17.8563 48.0551 17.908 48.0346 17.956C48.0143 18.0025 47.9854 18.0448 47.9495 18.0806C47.9127 18.1159 47.8698 18.1444 47.8229 18.1647C47.7737 18.1856 47.7207 18.1962 47.6673 18.1959C47.6132 18.1963 47.5596 18.1857 47.5097 18.1647C47.4623 18.1449 47.419 18.1164 47.3821 18.0806C47.3463 18.0434 47.3178 17.9998 47.2983 17.9519C47.2778 17.9039 47.2672 17.8522 47.2672 17.8C47.2672 17.7478 47.2778 17.6961 47.2983 17.6481C47.3181 17.6014 47.347 17.559 47.3834 17.5235C47.4197 17.4871 47.4631 17.4585 47.5109 17.4394C47.5608 17.4185 47.6144 17.4078 47.6685 17.4082M10.8864 16.0092C10.8864 15.3164 11.3404 14.7472 12.0824 14.7472C12.7915 14.7472 13.27 15.2919 13.27 16.0092C13.27 16.7265 12.7915 17.2711 12.0824 17.2711C11.3404 17.2711 10.8864 16.702 10.8864 16.0092ZM14.0783 16.0092V14.0376H13.221V14.5179C12.9491 14.163 12.5367 13.9403 11.9758 13.9403C10.8708 13.9403 10.0036 14.8068 10.0036 16.0101C10.0036 17.2135 10.8703 18.0799 11.9758 18.0799C12.5364 18.0799 12.9491 17.857 13.221 17.5024V17.981H14.0774V16.0092H14.0783ZM43.0456 16.0092C43.0456 15.3164 43.4996 14.7472 44.2419 14.7472C44.9517 14.7472 45.4295 15.2919 45.4295 16.0092C45.4295 16.7265 44.9517 17.2711 44.2419 17.2711C43.4999 17.2711 43.0456 16.702 43.0456 16.0092ZM46.2385 16.0092V12.4551H45.3805V14.5179C45.1086 14.163 44.6961 13.9403 44.1352 13.9403C43.0303 13.9403 42.1631 14.8068 42.1631 16.0101C42.1631 17.2135 43.0298 18.0799 44.1352 18.0799C44.6961 18.0799 45.1086 17.857 45.3805 17.5024V17.981H46.2385V16.0092ZM24.7186 14.7066C25.2711 14.7066 25.6259 15.0529 25.7165 15.6626H23.6708C23.7624 15.0935 24.108 14.7066 24.7189 14.7066M24.7359 13.9382C23.5805 13.9382 22.7722 14.7787 22.7722 16.008C22.7722 17.2613 23.6129 18.0777 24.7933 18.0777C25.3871 18.0777 25.931 17.9296 26.4095 17.5254L25.9893 16.8902C25.6588 17.1544 25.238 17.3026 24.8423 17.3026C24.2899 17.3026 23.7869 17.0468 23.6632 16.3372H26.5906C26.599 16.2306 26.6076 16.123 26.6076 16.0077C26.599 14.7789 25.839 13.9379 24.7354 13.9379M35.0861 16.0077C35.0861 15.3149 35.5401 14.7458 36.2821 14.7458C36.9912 14.7458 37.4697 15.2904 37.4697 16.0077C37.4697 16.725 36.9912 17.2697 36.2821 17.2697C35.5401 17.2697 35.0858 16.7005 35.0858 16.0077M38.2777 16.0077V14.0376H37.4209V14.5179C37.148 14.163 36.7365 13.9403 36.1757 13.9403C35.0707 13.9403 34.2035 14.8068 34.2035 16.0101C34.2035 17.2135 35.0702 18.0799 36.1757 18.0799C36.7365 18.0799 37.148 17.857 37.4209 17.5024V17.981H38.278V16.0092L38.2777 16.0077ZM30.2446 16.0077C30.2446 17.2034 31.0772 18.0775 32.3479 18.0775C32.9417 18.0775 33.3373 17.9454 33.7652 17.6075L33.3534 16.9147C33.0316 17.146 32.6936 17.2697 32.3205 17.2697C31.6362 17.2613 31.1329 16.7666 31.1329 16.0077C31.1329 15.2489 31.6362 14.7544 32.3205 14.7458C32.6926 14.7458 33.0306 14.8695 33.3534 15.1007L33.7652 14.4079C33.3366 14.07 32.941 13.9379 32.3479 13.9379C31.0772 13.9379 30.2446 14.8118 30.2446 16.0077ZM41.2967 13.9379C40.8021 13.9379 40.48 14.1692 40.2573 14.5155V14.0376H39.4077V17.9788H40.2659V15.7695C40.2659 15.1173 40.5463 14.7549 41.1067 14.7549C41.2902 14.7523 41.4724 14.786 41.6428 14.8541L41.9071 14.0463C41.7173 13.9716 41.4699 13.9387 41.2962 13.9387M18.3168 14.351C17.9044 14.0792 17.336 13.9387 16.7091 13.9387C15.7103 13.9387 15.0673 14.4173 15.0673 15.2004C15.0673 15.843 15.546 16.2395 16.4276 16.3631L16.8326 16.4208C17.3026 16.4868 17.5246 16.6105 17.5246 16.8331C17.5246 17.1378 17.2123 17.3117 16.626 17.3117C16.0322 17.3117 15.6036 17.122 15.3147 16.8994L14.9118 17.5677C15.3819 17.914 15.9757 18.0792 16.6188 18.0792C17.7574 18.0792 18.4172 17.5432 18.4172 16.7927C18.4172 16.0999 17.8979 15.7376 17.0399 15.6139L16.6358 15.5553C16.2647 15.5073 15.9673 15.4326 15.9673 15.1684C15.9673 14.8803 16.2476 14.7069 16.718 14.7069C17.2212 14.7069 17.7084 14.8966 17.9471 15.0448L18.3183 14.352L18.3168 14.351ZM29.3787 13.9394C28.8841 13.9394 28.562 14.1706 28.3403 14.5169V14.0376H27.4907V17.9788H28.348V15.7695C28.348 15.1173 28.6283 14.7549 29.1887 14.7549C29.3722 14.7523 29.5544 14.786 29.7248 14.8541L29.9891 14.0463C29.7993 13.9716 29.5519 13.9387 29.3782 13.9387M22.0629 14.0376H20.661V12.8419H19.7943V14.0376H18.9947V14.8209H19.7943V16.6189C19.7943 17.5333 20.1494 18.078 21.1635 18.078C21.5356 18.078 21.9642 17.9627 22.2361 17.7732L21.9884 17.0394C21.7326 17.1875 21.4523 17.2622 21.2294 17.2622C20.8008 17.2622 20.661 16.9981 20.661 16.6026V14.8217H22.0629V14.0376ZM9.24554 17.9798V15.5063C9.24554 14.5748 8.65175 13.948 7.69451 13.9396C7.19127 13.9312 6.67218 14.0878 6.30874 14.6408C6.03683 14.2038 5.60829 13.9396 5.00585 13.9396C4.58476 13.9396 4.17328 14.0633 3.85116 14.5249V14.0376H2.99313V17.9788H3.85789V15.7935C3.85789 15.1094 4.23742 14.7458 4.82353 14.7458C5.39283 14.7458 5.68084 15.1168 5.68084 15.7849V17.9783H6.54751V15.793C6.54751 15.1089 6.94314 14.7453 7.51219 14.7453C8.09758 14.7453 8.37695 15.1163 8.37695 15.7844V17.9778L9.24554 17.9798Z" fill="white"/>
<path d="M48.0896 13.0314V12.4551H47.9394L47.7658 12.8506L47.5931 12.4551H47.4425V13.0314H47.5491V12.5972L47.7115 12.9719H47.822L47.9844 12.5963V13.0314H48.0901H48.0896ZM47.1371 13.0314V12.5538H47.3293V12.4565H46.8383V12.5538H47.0305V13.0314H47.1362H47.1371Z" fill="white"/>
</g>
<defs>
<clipPath id="clip0_14_6601">
<rect width="48.0419" height="30.2486" fill="white" transform="translate(0.505508)"/>
</clipPath>
</defs>
</svg>

<svg width="49" height="31" fill="none" xmlns="http://www.w3.org/2000/svg"><g clip-path="url(#clip0_14_6601)"><path d="M31.026 26.515H18.034V3.174h12.992v23.341z" fill="#FF5F00"/><path d="M18.858 14.845c0-4.735 2.217-8.953 5.67-11.671A14.787 14.787 0 0015.353 0C7.153 0 .506 6.646.506 14.845c0 8.198 6.647 14.845 14.847 14.845a14.786 14.786 0 009.176-3.174 14.818 14.818 0 01-5.671-11.671z" fill="#EB001B"/><path d="M48.553 14.845c0 8.198-6.647 14.845-14.847 14.845a14.79 14.79 0 01-9.177-3.174 14.816 14.816 0 005.672-11.671c0-4.735-2.218-8.953-5.672-11.671A14.791 14.791 0 0133.706 0c8.2 0 14.847 6.646 14.847 14.845" fill="#F79E1B"/><path d="M47.6 17.685v.096h.09a.095.095 0 00.048-.012.043.043 0 00.018-.037.04.04 0 00-.018-.036.086.086 0 00-.048-.012h-.09v.001zm.091-.068a.166.166 0 01.108.032.104.104 0 01.038.085.097.097 0 01-.03.074.148.148 0 01-.087.036l.12.137h-.092l-.11-.136h-.036v.136h-.078v-.363h.169-.002zm-.024.49a.307.307 0 00.28-.185.311.311 0 000-.239.312.312 0 00-.162-.16.315.315 0 00-.238 0 .306.306 0 00-.098.064.31.31 0 000 .433.309.309 0 00.218.089m0-.697a.402.402 0 01.368.24.387.387 0 01-.212.513.399.399 0 01-.556-.365.387.387 0 01.244-.36.4.4 0 01.157-.032M10.887 16.01c0-.693.454-1.262 1.196-1.262.71 0 1.188.545 1.188 1.262 0 .718-.479 1.262-1.188 1.262-.742 0-1.196-.569-1.196-1.262zm3.192 0v-1.971h-.857v.48c-.272-.355-.684-.578-1.245-.578-1.105 0-1.972.867-1.972 2.07 0 1.203.866 2.07 1.972 2.07.56 0 .973-.223 1.245-.578v.479h.856V16.01h.001zm28.968 0c0-.693.454-1.262 1.196-1.262.71 0 1.188.545 1.188 1.262 0 .718-.478 1.262-1.188 1.262-.742 0-1.196-.569-1.196-1.262zm3.193 0v-3.554h-.858v2.063c-.272-.355-.685-.578-1.246-.578-1.105 0-1.972.867-1.972 2.07 0 1.203.867 2.07 1.972 2.07.561 0 .974-.223 1.245-.578v.479h.858V16.01zm-21.52-1.302c.552 0 .907.346.997.956h-2.045c.091-.57.437-.956 1.048-.956m.017-.769c-1.155 0-1.964.84-1.964 2.07 0 1.253.84 2.07 2.021 2.07.594 0 1.138-.148 1.617-.553l-.42-.635a1.88 1.88 0 01-1.148.413c-.552 0-1.055-.256-1.179-.966h2.928c.008-.106.017-.214.017-.33-.009-1.228-.769-2.07-1.873-2.07m10.351 2.07c0-.692.454-1.261 1.196-1.261.71 0 1.188.544 1.188 1.262 0 .717-.479 1.262-1.188 1.262-.742 0-1.196-.57-1.196-1.262m3.192 0v-1.97h-.857v.48c-.273-.355-.684-.578-1.245-.578-1.105 0-1.973.867-1.973 2.07 0 1.203.867 2.07 1.973 2.07.56 0 .972-.223 1.245-.578v.479h.857v-1.974zm-8.033 0c0 1.195.832 2.07 2.103 2.07.594 0 .99-.133 1.417-.47l-.412-.693c-.321.231-.66.355-1.032.355-.685-.009-1.188-.503-1.188-1.262 0-.76.503-1.254 1.188-1.262.372 0 .71.123 1.032.355l.412-.693c-.428-.338-.824-.47-1.417-.47-1.27 0-2.103.874-2.103 2.07zm11.052-2.07c-.495 0-.817.231-1.04.577v-.477h-.85v3.94h.859V15.77c0-.652.28-1.014.84-1.014.184-.003.366.031.537.1l.264-.809a1.823 1.823 0 00-.61-.107m-22.98.412c-.413-.272-.981-.412-1.608-.412-.999 0-1.642.478-1.642 1.261 0 .643.479 1.04 1.36 1.163l.406.058c.47.066.692.19.692.412 0 .305-.313.479-.899.479-.594 0-1.022-.19-1.311-.413l-.403.669c.47.346 1.064.511 1.707.511 1.138 0 1.798-.536 1.798-1.286 0-.693-.52-1.055-1.377-1.18l-.404-.058c-.371-.048-.669-.122-.669-.387 0-.288.28-.461.751-.461.503 0 .99.19 1.23.338l.37-.693-.001-.001zm11.062-.412c-.495 0-.817.232-1.039.578v-.48h-.85v3.942h.858v-2.21c0-.652.28-1.014.84-1.014.184-.003.366.031.537.1l.264-.809a1.823 1.823 0 00-.61-.107m-7.316.099H20.66v-1.196h-.867v1.196h-.8v.783h.8v1.798c0 .914.355 1.459 1.37 1.459.372 0 .8-.115 1.072-.305l-.248-.734a1.588 1.588 0 01-.759.223c-.428 0-.568-.264-.568-.66v-1.78h1.402v-.784zM9.246 17.98v-2.474c0-.931-.594-1.558-1.551-1.566-.504-.009-1.023.148-1.386.7-.272-.436-.7-.7-1.303-.7-.421 0-.833.123-1.155.585v-.487h-.858v3.94h.865v-2.185c0-.684.38-1.047.966-1.047.569 0 .857.37.857 1.039v2.193h.867v-2.185c0-.684.395-1.048.964-1.048.586 0 .865.371.865 1.04v2.193l.869.002zm38.844-4.949v-.576h-.15l-.174.396-.173-.396h-.15v.576h.106v-.434l.163.375h.11l.162-.376v.435h.106zm-.953 0v-.477h.192v-.098h-.49v.098h.192v.477h.106z" fill="#fff"/></g><defs><clipPath id="clip0_14_6601"><path fill="#fff" transform="translate(.506)" d="M0 0h48.042v30.249H0z"/></clipPath></defs></svg>
